dist/images/svg/mail-green.svg

<?xml version="1.0" encoding="UTF-8"?>
<svg width="24px" height="24px" viewBox="0 0 24 24" version="1.1" xmlns="http://www.w3.org/2000/svg" xmlns:xlink="http://www.w3.org/1999/xlink">
    <!-- Generator: Sketch 49.1 (51147) - http://www.bohemiancoding.com/sketch -->
    <title>Elements / Icons / S / Mail</title>
    <desc>Created with Sketch.</desc>
    <defs>
        <path d="M14.1618063,16.3714991 L17.643675,12.65592 C17.8142165,12.4735415 18.0475443,12.3977717 18.2705551,12.4286106 C18.4727818,12.4302628 18.6745352,12.5033771 18.829049,12.6478633 L20.3143073,14.038793 C20.5028384,14.2155409 20.5774473,14.4582228 20.5388345,14.6873591 C20.6624669,14.9817369 20.6111887,15.3393934 20.385,15.58128 L16.8735,19.32928 C16.7504048,19.4599117 16.5957551,19.5361295 16.4359741,19.5574637 L14.39475,19.9848 C14.346,19.9952 14.298,20 14.25,20 C14.05275,20 13.8615,19.9168 13.71975,19.7656 C13.5435,19.5776 13.46625,19.3072 13.51425,19.0464 L13.92375,16.8152 C13.956795,16.6366538 14.0432514,16.4837451 14.1618063,16.3714991 Z M15.3515443,17.3647864 L15.201,18.1856 L15.9755956,18.02297 L18.933555,14.8664657 L18.2725209,14.2477477 L15.3515443,17.3647864 Z M4.5,6.85098151 L4.5,16 C4.5,16.4408 4.83675,16.8 5.25,16.8 L12,16.8 C12.414,16.8 12.75,17.1584 12.75,17.6 C12.75,18.0416 12.414,18.4 12,18.4 L5.25,18.4 C4.0095,18.4 3,17.3232 3,16 L3,6.4 C3,5.0768 4.0095,4 5.25,4 L18.75,4 C19.9905,4 21,5.0768 21,6.4 L21,10.4 C21,10.8416 20.664,11.2 20.25,11.2 C19.836,11.2 19.5,10.8416 19.5,10.4 L19.5,6.85098151 L12.49425,13.4016 C12.35325,13.5336 12.17625,13.6 12,13.6 C11.82375,13.6 11.64675,13.5336 11.50575,13.4016 L4.5,6.85098151 Z M5.43810645,5.6 L12,11.736 L18.5618936,5.6 L5.43810645,5.6 Z" id="path-1"></path>
    </defs>
    <g id="Symbols" stroke="none" stroke-width="1" fill="none" fill-rule="evenodd">
        <g id="Elements-/-Icons-/-S-/-Mail">
            <mask id="mask-2" fill="white">
                <use xlink:href="#path-1"></use>
            </mask>
            <use id="Mask" fill="#40b550" xlink:href="#path-1"></use>
        </g>
    </g>
</svg>

<svg width="24" height="24" viewBox="0 0 24 24" xmlns="http://www.w3.org/2000/svg" xmlns:xlink="http://www.w3.org/1999/xlink"><title>Elements / Icons / S / Mail</title><defs><path d="M14.162 16.371l3.482-3.715a.72.72 0 0 1 .627-.227.826.826 0 0 1 .558.219l1.485 1.39a.72.72 0 0 1 .225.65.842.842 0 0 1-.154.893l-3.512 3.748a.734.734 0 0 1-.437.228l-2.041.428a.727.727 0 0 1-.675-.22.836.836 0 0 1-.206-.719l.41-2.23a.812.812 0 0 1 .238-.445zm1.19.994l-.151.82.775-.162 2.958-3.157-.661-.618-2.921 3.117zM4.5 6.85V16c0 .44.337.8.75.8H12c.414 0 .75.358.75.8 0 .442-.336.8-.75.8H5.25C4.01 18.4 3 17.323 3 16V6.4C3 5.077 4.01 4 5.25 4h13.5C19.99 4 21 5.077 21 6.4v4c0 .442-.336.8-.75.8s-.75-.358-.75-.8V6.851l-7.006 6.55A.722.722 0 0 1 12 13.6a.722.722 0 0 1-.494-.198L4.5 6.85zm.938-1.25L12 11.736 18.562 5.6H5.438z" id="a"/></defs><use fill="#40b550" xlink:href="#a" fill-rule="evenodd"/></svg>
